X:041
T:Day I Met Tom Moylan (reel), The 
B:CRE3.131 (LÃÂÃÂÃÂÃÂ¡ a Casadh TomÃÂÃÂÃÂÃÂ¡s ÃÂÃÂÃÂ¢ÃÂÃÂ MaolÃÂÃÂÃÂÃÂ¡in Orm)
F:file ID: cre.3/041day_i_met
N:Close relative of "Man of the House".
R:reel
L:1/8
Q:180
M:C
K:D
"E dorian"
E2BE GABG|E2BG AFDB|E2BE GABe|dBcA BEED|
E2GE GABG|E2BG AFD2|EBBA GABc|dB (3cBA BEE2||
efge f2af|gfed edBd|efge fedB|edBA BEE2|
efge f2af|gfed ed (3Bcd|bgaf gefd|e2BA GEFD||

%%%

